src/img/dark.svg

<svg width="31" height="32" viewBox="0 0 31 32" fill="none" xmlns="http://www.w3.org/2000/svg">
<path d="M0 18.5983C0 12.8547 3.26314 7.93165 7.88595 6.01712C8.70174 5.74362 9.24562 5.74363 9.51755 6.29064C9.78948 6.56415 9.78948 7.11109 9.51755 7.9316C8.97369 9.02561 8.70179 10.6667 8.70179 12.5812C8.70179 19.1453 13.0527 23.5214 19.8509 23.5214C21.4825 23.5214 22.8421 23.2479 24.2018 22.7009C24.7456 22.4274 25.2895 22.4274 25.5614 22.7009C25.8333 22.9744 26.1053 23.5213 25.5614 24.3418C23.386 29.2649 19.0351 32 13.3246 32C5.71051 31.7265 0 25.9829 0 18.5983ZM22.2983 25.1624C21.7544 25.4359 20.3948 25.4359 19.307 25.4359C11.693 25.4359 6.5263 20.5128 6.5263 12.8547C6.5263 11.4872 6.79827 10.1197 7.0702 9.02568C4.3509 11.2137 2.7193 14.4957 2.7193 18.3248C2.7193 24.6154 7.07018 29.265 13.5965 29.265C17.1316 29.265 20.3948 27.8974 22.2983 25.1624ZM17.4035 6.8376C16.8596 4.37606 16.8597 4.37605 14.4123 3.82904C14.1404 3.82904 14.1404 3.82911 14.1404 3.5556C14.1404 3.2821 14.1404 3.28208 14.4123 3.28208C17.1316 2.73507 16.8596 2.73506 17.4035 0.273521C17.4035 1.66893e-05 17.6754 0 17.6754 0C17.9474 0 17.9474 1.66893e-05 17.9474 0.273521C18.4913 2.73506 18.4913 2.73507 20.9386 3.28208C21.2106 3.28208 21.2106 3.5556 21.2106 3.5556C21.2106 3.5556 21.2106 3.82904 20.9386 3.82904C18.2193 4.37605 18.2193 4.37606 17.9474 6.8376C17.9474 7.1111 17.6754 7.11112 17.6754 7.11112C17.4035 7.11112 17.4035 7.1111 17.4035 6.8376ZM24.4737 16.9573C23.9298 12.8547 23.9299 12.8547 19.579 12.0342C19.3071 12.0342 19.0351 11.7607 19.0351 11.4872C19.0351 11.2137 19.3071 10.9402 19.579 10.9402C23.6579 10.1196 23.9298 10.1197 24.4737 6.01712C24.4737 5.74362 24.7457 5.47008 25.0176 5.47008C25.2895 5.47008 25.5614 5.74362 25.5614 6.01712C26.1053 10.1197 26.1053 10.1196 30.4562 10.9402C30.7281 10.9402 31 11.2137 31 11.4872C31 11.7607 30.7281 12.0342 30.4562 12.0342C26.3772 12.8547 26.1053 12.8547 25.5614 16.9573C25.5614 17.2308 25.2895 17.5042 25.0176 17.5042C24.7457 17.5042 24.4737 17.2308 24.4737 16.9573Z" fill="white"/>
</svg>

<svg width="31" height="32" viewBox="0 0 31 32" fill="none" xmlns="http://www.w3.org/2000/svg"><path d="M0 18.6C0 12.9 3.3 7.9 7.9 6c.8-.3 1.3-.3 1.6.3.3.3.3.8 0 1.6a11 11 0 0 0-.8 4.7c0 6.5 4.4 11 11.2 11 1.6 0 3-.4 4.3-.9.5-.3 1-.3 1.4 0 .2.3.5.8 0 1.6-2.2 5-6.6 7.7-12.3 7.7C5.7 31.7 0 26 0 18.6Zm22.3 6.6c-.5.2-2 .2-3 .2-7.6 0-12.8-4.9-12.8-12.5 0-1.4.3-2.8.6-3.9a11.7 11.7 0 0 0-4.4 9.3c0 6.3 4.4 11 10.9 11 3.5 0 6.8-1.4 8.7-4.1ZM17.4 6.8c-.5-2.4-.5-2.4-3-3-.3 0-.3 0-.3-.2 0-.3 0-.3.3-.3 2.7-.6 2.5-.6 3-3 0-.3.3-.3.3-.3.2 0 .2 0 .2.3.6 2.4.6 2.4 3 3 .3 0 .3.3.3.3s0 .2-.3.2c-2.7.6-2.7.6-3 3 0 .3-.2.3-.2.3-.3 0-.3 0-.3-.3Zm7 10.2c-.5-4.1-.5-4.1-4.8-5-.3 0-.6-.2-.6-.5s.3-.6.6-.6c4-.8 4.3-.8 4.9-4.9 0-.3.2-.5.5-.5s.6.2.6.5c.5 4.1.5 4.1 4.9 5 .2 0 .5.2.5.5s-.3.5-.5.5c-4.1.9-4.4.9-5 5 0 .2-.2.5-.5.5s-.5-.3-.5-.5Z" fill="white"/></svg>
